X: 05008
T: ARTHUR WILLIAMS' REEL
C: Bob McQuillen 19 Oct'81
B: Bob's Note Book 5 #8
%R: reel
Z: 2021 John Chambers <jc:trillian.mit.edu>
M: C
L: 1/8
K: A
cB \
| AEAc A2Ac | dcBA GAB2 | Acea fedc | BcBG EdcB |\
| A2AE Acec | dcBA GEFG | Acea fdBG | A2c2 A2 :|
|: cd \
| ecef e2cd | eagf edcd | ecef ecfe | d2B2 B2cd |\
| e2ef ecea | bagf ecAc | eagf ecBd | c2A2 A2 :|
%%begintext align
%% After more
%% than 30 yrs of it Arthur doesn't show
%% any signs of giving up; in fact, I think
%% he's dancing better now than he ever did.
%% Here's a tune for you, Arthur, with fondest
%% Best Wishes always -
%%endtext

%%sep 1 1 500

%%sep 1 1 500

